X:1
T:Drifting Away
T:Drifting Away
T:H. A. R. Horton
T:W. C. McConnell, 1911
T:Public Domain Courtesy of the Cyber Hymnal™
T:Public Domain Courtesy of the Cyber Hymnal™
C:H. A. R. Horton
Z:Public Domain
Z:Courtesy of the Cyber Hymnal™
%%score ( 1 2 ) ( 3 4 )
L:1/8
Q:1/4=96
M:6/8
K:F
V:1 treble 
V:2 treble 
V:3 bass 
V:4 bass 
V:1
 C[CF][CG] [FA]2 [FA] | (A^G)[FA] [Fc]2 [FA] | [EG]2 [EG] [EB]2 [EG] | [FA]3- [FA]2 [Fc] | %4
w: 1.~Drift- ing a- way from|God * to- day, Out|in the world to|roam; * How|
w: 2.~Drift- ing a- way from|God * to- day, From|mo- ther, home and|friend, * Thro’|
w: 3.~Drift- ing a- way from|God * to- day, Far|o’er the sea of|sin; * Oh!|
 (cB)[FA] [EB]2 [EB] | ([GB][EG])[E^G] [FA]2 [CF] | [^CG]2 [CG] [DF]2 [_DG] | %7
w: sad * the heart will|ev- * er be, The|heart that once was|
w: storm- * y winds that|blast * and blight; O’er|de- sert sands and|
w: who * will guide your|foot- * steps sure, And|who will make your|
 ([CA][Ed])[Gc] [Fc]2 [FA] | [EG]2 [Ec] ([Fd][Ge])[Fd] | [Ec]6 ||"^Refrain" [Ac]4 [GB][FA] | %11
w: pure * and free, But|wan- dering now * a-|lone.||
w: moun- * tain height, Un-|to a bit- * ter|end.|Drift- ing a-|
w: soul * se- cure? ’Tis|God who dwells * with-|in.||
 [EG]3- [EG]2 z | [GB]4 [FA][EG] | [DF]3 !fermata![^CA]2 z | [CA] [EG]4 [GB] | %15
w: ||||
w: way, *|drift- ing a-|way, Drift-|ing, yes, drift-|
w: ||||
 [Bd][Ac][GB] [FA]2 z | cAF !fermata!C2"^riten." [CG] | [FA]2 [EG] !fermata!F3 |] %18
w: |||
w: ing a- way, Drift-|ing a- way, away from|God. * *|
w: |||
V:2
 C x5 | F2 x4 | x6 | x6 | F2 x4 | x6 | x6 | x6 | x6 | x6 || x6 | x6 | x6 | x6 | x6 | x6 | %16
 cAF C2 x | x3 F3 |] %18
V:3
 [F,A,][F,A,][F,B,] [F,C]2 [F,C] | (C=B,)[F,C] [F,A,]2 [F,C] | [C,C]2 [C,C] [G,C]2 [C,C] | %3
w: |||
 [F,C]3- [F,C]2 [F,A,] | (A,D)[F,C] [G,C]2 [G,C] | [C,C]2 [C,C] [F,C]2 [F,A,] | %6
w: |||
 [E,A,]2 [E,A,] [D,A,]2 [B,,B,] | (F,B,)[C,B,] [F,A,]2 [F,C] | [G,C]2 [G,C] (=B,C)[G,B,] | %9
w: |||
 [C,C]6 || [F,C][F,C][F,C] [F,C]2 z | [C,C][E,C][G,C] [C,C]2 z | [C,C][C,C][C,C] [C,C]2 [C,B,] | %13
w: |Drift- ing a- way,|drift- ing a- way,|Drift- ing a- way, yes,|
 [D,A,][D,G,][D,F,] !fermata![A,,E,]2 z | z3 [C,C][C,C][C,C] | [F,C]3- [F,C]2 z | %16
w: drift- ing a- way,|Drift- ing a-|way *|
 CA,F, !fermata!C,2 [C,B,] | [C,C]2 [C,B,] !fermata![F,A,]3 |] %18
w: ||
V:4
 x6 | F,2 x4 | x6 | x6 | F,2 x4 | x6 | x6 | C,2 x4 | x3 G,2 x | x6 || x6 | x6 | x6 | x6 | x6 | x6 | %16
 CA,F, C,2 x | x6 |] %18

